!!!!SEGMENT: pl-sa--290-a-vii-50--006_lechleitner-ferdinand-simon--missa-s-luciae-agnus-dei.krn
!!!cenid: 17xx:435
!!!COM: Lechleitner, Ferdinand Simon
!!!COM-rismID: pe30001903
!!!CDT: ~1700-~1800
!!!CNT:
!!!OPR: Missa S. Luciae
!!!OTL: Agnus Dei
!!!OMV: 006
!!!PDT: 1738
!!!AGN: Sacred; Mass
!!!SMS-siglum: PL-SA
!!!SMS-shelfmark: 290/A VII 50
!!!SMS-shelfwork: 001-006 M
!!!NIFC-rismSourceID: 1001070169
!!!NIFC-islandoraID:
!!!URL-pdf-islandora:
!!!URL-scan: https://bc.bdsandomierz.pl/dlibra/publication/1785/edition/1753/content @EN{Scan on Cyfrowa Biblioteka Diecezjalna w Sandomierzu} @PL{Skany w portalu Cyfrowa Biblioteka Diecezjalna w Sandomierzu}
!!!ONB-nifc: UWAGA: części Mszy: Kyrie, Gloria, Patrem, Sanctus, Benedictus, Agnus Dei
!!!AIN: 1 alto 3 empty 1 organ 1 tenor 2 violn 1 vox
!!!key:
**kern	**fba	**kern	**kern	**kern	**text	**kern	**text	**kern	**text	**kern	**text	**kern	**kern
*part9	*	*part8	*part7	*part6	*part6	*part5	*part5	*part4	*part4	*part3	*part3	*part2	*part1
*group3	*	*group3	*group3	*group2	*	*group2	*	*group2	*	*group2	*	*group1	*group1
*staff9	*	*staff8	*staff7	*staff6	*staff6	*staff5	*staff5	*staff4	*staff4	*staff3	*staff3	*staff2	*staff1
*Iorgan	*	*Ivioln	*Ivioln	*Iempty	*	*Itenor	*	*Ialto	*	*Ivox	*	*Iempty	*Iempty
*I"Baſso pro Organo	*	*I"Violino Secundo	*I"Violino Primo	*I"Bafso	*	*I"Tenore	*	*I"Alto	*	*I"Canto	*	*I"Clarino 2do	*I"Clarino primo Ex C.
*I'org	*	*I'vl II	*I'vl I	*I'B	*	*I'T	*	*I'A	*	*I'S	*	*I'clno II	*I'clno I
*clefF4	*	*clefG2	*clefG2	*clefF4	*	*clefC4	*	*clefC3	*	*clefC1	*	*clefG2	*clefG2
*k[]	*	*k[]	*k[]	*k[]	*	*k[]	*	*k[]	*	*k[]	*	*k[]	*k[]
*C:	*	*C:	*C:	*C:	*	*C:	*	*C:	*	*C:	*	*C:	*C:
*M4/4	*	*M4/4	*M4/4	*M4/4	*	*M4/4	*	*M4/4	*	*M4/4	*	*M4/4	*M4/4
*met(c)	*	*met(C.)	*met(c)	*met(C.)	*	*met(C.)	*	*met(C.)	*	*met(c)	*	*met(C.)	*met(C.)
=1	=1	=1	=1	=1	=1	=1	=1	=1	=1	=1	=1	=1	=1
!LO:TX:a:i:t=Solo	!	!	!	!LO:TX:a:i:t=Solo	!	!	!	!	!	!	!	!	!LO:TX:a:t=P:problem=partia słabo czytelna
!LO:TX:b:i:t=Agnus Dei	!	!	!LO:TX:b:t=Agnus Dei	!	!	!	!	!	!	!	!	!LO:TX:b:i:t=Agnus Dei	!LO:TX:b:i:t=Agnus Dei
!LO:TX:a:t=P:problem=brak nazwy instrumentu na kaecie głosu, na stronie tytułowej jest "Baſso pro Organo"	!	!	!	!	!	!	!	!	!	!	!	!	!
2.C/	.	00r	00r	4.C/	A-	00r	.	00r	.	00r	.	4.ee\	4.gg\
.	.	.	.	8C/	-gnus	.	.	.	.	.	.	8ee\	8ee\
.	4 2	.	.	8D\L	De-	.	.	.	.	.	.	4.dd\	4.ff\
.	.	.	.	16E\L	.	.	.	.	.	.	.	.	.
.	.	.	.	16F\JJ	.	.	.	.	.	.	.	.	.
!	!	!	!	!LO:TX:a:t=P:problem=mixed beam	!	!	!	!	!	!	!	!	!
4BB/	.	.	.	8G\L	.	.	.	.	.	.	.	.	.
.	.	.	.	8GG/J	.	.	.	.	.	.	.	8dd\	8ff\
=2	=2	=2	=2	=2	=2	=2	=2	=2	=2	=2	=2	=2	=2
4C/	.	.	.	8C,</	-i	.	.	.	.	.	.	4cc\	4ee\
.	.	.	.	8C/	qui	.	.	.	.	.	.	.	.
8E\L	6	.	.	8E\L	tol-	.	.	.	.	.	.	4r	4r
8F\J	6 5	.	.	8F\J	.	.	.	.	.	.	.	.	.
4G\	.	.	.	4G\	-lis	.	.	.	.	.	.	8r	8r
.	.	.	.	.	.	.	.	.	.	.	.	8g/L	8dd\L
4G\	.	.	.	8G\L	pec-	.	.	.	.	.	.	8g/	8dd\
.	.	.	.	8B\J	.	.	.	.	.	.	.	8g/J	8dd\J
=3	=3	=3	=3	=3	=3	=3	=3	=3	=3	=3	=3	=3	=3
4E\	.	.	.	4c\	-ca	.	.	.	.	.	.	4g/	4cc\
4C/	.	.	.	4C,</	ta	.	.	.	.	.	.	4ee\	4gg\
4D/	7	.	.	4D/	mun-	.	.	.	.	.	.	4.dd\	4.ff\
4G\	7	.	.	4G\	.	.	.	.	.	.	.	.	.
.	.	.	.	.	.	.	.	.	.	.	.	16ee\LL	16gg\LL
.	.	.	.	.	.	.	.	.	.	.	.	16dd\JJ	16ff\JJ
=4	=4	=4	=4	=4	=4	=4	=4	=4	=4	=4	=4	=4	=4
4C/	.	.	.	4C/	-di	.	.	.	.	.	.	8cc\L	8ee\L
.	.	.	.	.	.	.	.	.	.	.	.	8cc\	8ee\
4E\	6	.	.	8E\	Mi-	.	.	.	.	.	.	8cc\	8ee\
.	.	.	.	8E\	-ſe-	.	.	.	.	.	.	8cc\J	8ee\J
*	*	*	*	*2\right	*	*	*	*	*	*	*	*	*
!	!	!	!	!	!	!	!	!	!	!	!	!LO:SIC:v:s=b	!
2F#X\	6 5	.	.	2F#X\	-re-	.	.	.	.	.	.	4cc\	4dd\
.	.	.	.	.	.	.	.	.	.	.	.	4r	4r
=5	=5	=5	=5	=5	=5	=5	=5	=5	=5	=5	=5	=5	=5
4G\	.	1r	1r	8G\	-re	1r	.	1r	.	1r	.	8r	8r
.	.	.	.	8G\	.	.	.	.	.	.	.	8g/L	8dd\L
!	!	!	!	!LO:LB:g=original	!	!	!	!	!	!	!	!	!
8B\L	.	.	.	8B\	Mi-	.	.	.	.	.	.	8g/	8dd\
8G\J	.	.	.	8B\	-ſe-	.	.	.	.	.	.	8g/J	8dd\J
!LO:TX:a:t=P:problem=mixed beam	!	!	!	!	!	!	!	!	!	!	!	!	!
8c\L	.	.	.	8c\	-re-	.	.	.	.	.	.	8cc\L	8ee\L
8A\	6 5	.	.	8A\	-re	.	.	.	.	.	.	8cc\	8gg\
!	!	!	!	!LO:TX:a:t=P:problem=mixed beam	!	!	!	!	!	!	!	!	!
8d\	.	.	.	8d\L	no-	.	.	.	.	.	.	8dd\	8gg\
8D/J	#	.	.	8D/J	.	.	.	.	.	.	.	8dd\J	8ff#X\J
!	!	!	!	!	!	!	!	!	!	!	!	!LO:LB:g=original	!
=6	=6	=6	=6	=6	=6	=6	=6	=6	=6	=6	=6	=6	=6
4G\	.	4r	4r	4G,<\	-bis	4r	.	4r	.	4r	.	4dd\	4gg\
!LO:TX:b:t=Tutti	!	!	!	!	!	!	!	!	!	!	!	!	!
8G\L	.	8b\L	8dd\L	8G\	A-	8d\	A-	8d\	A-	8b\	A-	4g/	4dd\
8G\J	.	8b\J	8dd\J	8G\	-gnus	8B,<\	-gnus	8g,<\	-gnus	8dd\	-gnus	.	.
4C/	.	4cc\	4ee\	4C/	De-	4c\	De-	4g\	De-	4ee\	De-	4.g/	4ee\
8C/L	.	4ee\	8gg\L	8C/	-i	8c\	-i	8e\	-i	8ee\	-i	.	8cc\L
8C/J	.	.	8ccc\J	8C/	qui	8e\	qui	8cc\	qui	8gg\	qui	8ee\	8gg\J
!LO:LB:g=original	!	!	!	!	!	!	!	!	!	!	!	!	!LO:LB:g=original
=7	=7	=7	=7	=7	=7	=7	=7	=7	=7	=7	=7	=7	=7
!	!	!	!	!	!	!	!	!	!	!LO:N:vis=4	!	!	!
4D\	.	4.dd\	4ccc\	4D/	tol-	4.d\	tol-	4cc\	tol-	4.ff\	tol-	4.dd\	4.ff\
4G\	.	.	4bb\	4G\	.	.	.	4b\	-lis	.	.	.	.
.	.	8dd\	.	.	.	16e\LL	.	.	.	16gg\LL	.	16ee\LL	16gg\LL
.	.	.	.	.	.	16d\JJ	.	.	.	16ff\JJ	.	16dd\JJ	16ff\JJ
4C/	.	4ee\	4ccc\	4C/	-lis	4c\	-lis	4cc\	.	4ee\	-lis	4cc\	4ee\
8r	.	8r	8r	8r	.	8r	.	8r	.	8r	.	4r	4r
8E\	.	8cc\	8gg\	8E\	pec-	8c\	pec-	8g\	pec-	8cc\	pec-	.	.
=8	=8	=8	=8	=8	=8	=8	=8	=8	=8	=8	=8	=8	=8
4F\	6 5	4a/	4aa\	4F\	-ca-	4A/	-ca-	4a\	-ca-	4cc\	-ca-	2r	2r
4D/	6 5	4b/	4aa\	4D/	-ta	4A/	-ta	4f\	-ta	4b\	-ta	.	.
*	*	*	*	*	*	*	*	*2\right	*	*	*	*	*
2E\	x 4	4.b/	4aa\	2E\	mun-	4A/	mun-	2e\	mun-	4.b\	mun-	8r	8r
.	.	.	.	.	.	.	.	.	.	.	.	8e/L	8e/L
.	7 #3	.	4gg#X\	.	.	4G#X/	.	.	.	.	.	8e/	8e/
.	.	8b/	.	.	.	.	.	.	.	16a\LL	.	8e/J	8e/J
.	.	.	.	.	.	.	.	.	.	16b\JJ	.	.	.
=9	=9	=9	=9	=9	=9	=9	=9	=9	=9	=9	=9	=9	=9
4AA/	.	4cc\	4aa\	4AA/	-di	4A/	-di	4e,<\	-di	4cc\	-di	8e/L	4e/
.	.	.	.	.	.	.	.	.	.	.	.	16e/L	.
.	.	.	.	.	.	.	.	.	.	.	.	16e/JJ	.
4A\	.	4ee\	4cc\	4A\	qui	4c\	qui	4c\	qui	4a\	qui	16e/LL	4r
.	.	.	.	.	.	.	.	.	.	.	.	16e/	.
.	.	.	.	.	.	.	.	.	.	.	.	16e/	.
.	.	.	.	.	.	.	.	.	.	.	.	16e/JJ	.
!	!	!	!	!LO:LB:g=original	!	!	!	!	!	!LO:LB:g=original	!	!	!
4G#X\	6	4ee\	4b\	4G#X\	tol-	4B\	tol-	4e\	tol-	4b\	tol-	4e/	8r
.	.	.	.	.	.	.	.	.	.	.	.	.	8e/L
8E\L	.	4ee\	8b\L	8E\	-lis	8B\	-lis	8g#X\	-lis	8b\	-lis	8r	8e/
!	!	!	!	!	!	!	!	!LO:LB:g=original	!	!	!	!	!
8G#\J	.	.	8b\J	8G#\	pec-	8B\	pec-	8e\	pec-	8b\	pec-	8e/	8e/J
!	!	!	!	!	!	!LO:LB:g=original	!	!	!	!	!	!	!
=10	=10	=10	=10	=10	=10	=10	=10	=10	=10	=10	=10	=10	=10
*	*	*	*2\right	*	*	*	*	*	*	*	*	*	*
2.A\	.	4ee\	2cc\	2.A\	-ca-	4A/	-ca-	4a\	-ca-	4cc\	-ca-	8e/L	8e/L
.	.	.	.	.	.	.	.	.	.	.	.	16e/L	16e/L
.	.	.	.	.	.	.	.	.	.	.	.	16e/JJ	16e/JJ
.	4 2	4cc\	.	.	.	4A/	-ta	4e\	-ta	4cc\	-ta	8e/	8e/
.	.	.	.	.	.	.	.	.	.	.	.	8r	8r
*	*	*	*	*	*	*2\right	*	*	*	*	*	*	*
.	.	2b/	4dd\	.	.	2B\	Mun-	4d\	Mun-	4dd\	Mun-	2r	2r
4Gn\	6	.	4ee\	4Gn\	-ta	.	.	4g\	.	4ee\	.	.	.
=11	=11	=11	=11	=11	=11	=11	=11	=11	=11	=11	=11	=11	=11
!	!	!	!	!	!	!	!	!	!	!	!	!LO:TX:b:t=Dona nobis ut Kyrie Allabreve	!LO:TX:b:t=Dona nobis ut \nKyrie allebreve.
2Fn\	7	2a/	4ee\	2Fn\	Mun-	2A/	.	2a\	.	4ee\	.	1r	1r
.	6\	.	4dd\	.	.	.	.	.	.	4dd\	.	.	.
*	*	*	*	*	*	*	*	*	*	*2\right	*	*	*
!	!	!	!	!	!	!	!	!LO:SIC:v:s=G#	!	!	!	!	!
!LO:TX:b:t=Dona nobis\nUt Kyrie allabre	!	!LO:TX:b:t=Dona nobis ut Kyrie Allabreve	!LO:TX:b:t=Dona nobis ut Kyrie allabreve	!LO:TX:b:t=Dona nobis ut Kyrie Allabreve	!	!LO:TX:b:t=Dona Nobis ut Kyrie Allabreve	!	!LO:TX:b:t=Dona Nobis Ut Kyrie\n Allabreve	!	!LO:TX:b:B:t=Dona nobis ut\n Kyrie allabreve	!	!	!
2E\	#	2g#X/	2ee\	2E\	-di	2B\	-di	2g\	-di	2ee\	-di	.	.
==	==	==	==	==	==	==	==	==	==	==	==	==	==
*-	*-	*-	*-	*-	*-	*-	*-	*-	*-	*-	*-	*-	*-
!!!system-decoration: [g1][g2][g3]
!!!RDF**kern: < = below
!!!ENC: Marta Lawrence
!!!END: 2020-11-06
!!!ENC: Marcin Jachim
!!!END: 2020-05-04
